X:98
T:Murdo MacKenzie of Torridon 
C:Joe Buchanan's Scottish Tome - Page 124.0
I:124 0
C:Bobby MacLeod
R:Jig
Z:Carl Allison
L:1/8
M:6/8
K:Amin
e | "Am"A>ee e3 | A>ee "G"d>B=g | GBd d>Bd | "C"(e=g)G "Em"B>AG |
"Am"A>ee e3 | A>ee "G"dBa | "C" =g>fe "G"deg | "Em"e>dB "Am"A<A :|
B|"Am" A>aa a3 | A>aa "Em"=g>ea | "Em"=g>fe "Bm"d>ef | "Em"=g>Gd "G"B>AG |
"Am"A>aa a3 | A>aa "Em"=g>ea | "Em"=g>fe "G"d>e=g | "Em"e>dB A2 B |
"Am"A>aa a3 | A>aa "Em"=g>ea |  "Em"=g>fe "Bm"d>ef | "Em"=g>Gd "G"B>AG |
"Am"e3 (A2 e) | "G"dBd (e2 a) | "Em"=g>fe "Bm"d>eg | "Em"e>dB "Am"A2 A |]
"Am"A3 e3 | "G"A2 e "G"d>B=g | "G"B3 =G3 | "Em"e>=gG B>AG |
"Am"A3 e3 | (A2 e) "G"d>Ba | "C"g>fe "G"d>e=g |  "Em"e>dB "Am"A>A :|
B | "Am"A>aA =g>Aa | "Am"A>=gA a>Aa | "Em"=g>fe "Bm"d>ef | "Em"=g>Gd "G"B>AG |
"Am"A>aA =g>Aa | "Am"A>=gA a>Aa | "C"=gfe "G"d>e=g | "Em"e>dB A2 B |
"Am"A>aA g>Aa | "Am"A>=gA a>Aa |  "Em"=g>fe "Bm"d>ef | "Em"=g>Gd "G"B>AG |
"Am"e3 (A2 e) | "G"d>Bd "Am"(e2 a) | "Em"=g>fe "Bm"d>eg | "Em"e>dB A<A |]

